X: 36
T:Shepherds' Hey, Bledington
M:4/4
L:1/8
R:Hornpipe
A:Bledington
P:A(ABAC)2A
K:F
P:A
|:ABcA B2B2|ABcA G2G2|ABcA B2AB|c2C2 F4:|
P:B
|:A2F2 B4  |A2F2 G4  |ABcA B2AB|c2C2 F4:|
P:C
|:A4F4|B4B4|A4F4|G4G4|ABcA B2AB|c2C2 F4:|

